!! 00008] TT[TB
!! Eigene Aufnahme   +++ BAND 8 +++
!!!OTL: Lu peng de yu shu
!!!ARE: Neimeng
!! Ethnic Group: Menggu,
!! Transkription
!!!SCT: C0198A
!!!YEM: Copyright 1995, estate of Helmut Schaffrath.
**kern
*ICvox
*Ivox
*M2/4
*k[f#c#]
*D:
=1
{4b
4b
=2
4b
4a
=3
8ee
8dd
4b
=4
8a
8f#
4d}
=5
{8.f#
16a
8b
8dd
=6
8a
8f#
8d
8e
=7
[2f#
=8
4f#]
4r}
=9
{8ee
8dd
4b
=10
4b
4B
=11
8b
8a
4f#
=12
8f#
8d
4B}
=13
{8.B
16d
8e
8f#
=14
8d
8B
4A
=15
[2B
=16
4B]
4r}
==
!! Der erste Kadenzton unterscheidet sich von der Notation, wenn diese
!!    nicht fehlerhaft ist. Fraglich ist auch, ob man nicht 1=H annehmen
!!    muesste. - Der Saenger singt die zweite Strophe etwas anders.
!!!ONB: ESAC (Essen Associative Code) Database: CHINA
!!!AMT: simple duple
!!!AIN: vox
!!!EED: Helmut Schaffrath
!!!EEV: 1.0
*-
!!!ONB: Tied note syntax fixed by Craig Sapp, 2004/05/03/
